X: 1
T: Bourr\'ee: Avant de s'en aller
R: bourree
S: Handout at 2014 NEFFA
Z: 2015 John Chambers <jc:trillian.mit.edu>
C: Pierre Imbert
M: 2/4
L: 1/16
K: G
|:\
"D"F3A "G"G2"D"F2 | "D"A4- A2AB | "C"c3B c2d2 | c2B2 A2G2 |\
"D"F3A "G"G2"D"F2 | "D"A4- A2AB | "C"c3B c2d2 | "D"A8 :|
|:\
"D"FAdF A2d2 | "C"c2B2 A2G2 | "D"FAdF A2d2 | "C"c2A2 "G"B4 |\
"D"FAdF A2d2 | "C"c2B2 A2G2 | "D"FAdF A2F2 | "G"G8 :|
